X:1
T:Laus Matutina, 11.10.11.10
T:John Stainer, 1872
T:Laus Matutina, 11.10.11.10
T:Public Domain
C:John Stainer, 1872
Z:Public Domain
%%score ( 1 2 ) ( 3 4 )
L:1/8
M:4/4
K:C
V:1 treble 
V:2 treble 
V:3 bass 
V:4 bass 
V:1
 [CE]4 [B,G]3 [B,E] | C6 [B,D]2 | [CE]2 [EG]2 [Fc]2 [GB]2 | [FA]4 [FA]2 [EG]2 | [Ge]4 [Gd]4 | %5
 [Ec]3 [Ec] [GB]2 [^FA]2 | [GB]4 [^FB]4 | E8 | [CE]4 [DG]3 [CE] | C6 [B,D]2 | %10
 [CE]2 [EG]2 [Fc]2 [GB]2 | [FA]4 [EG]2 [EG]2 | [Ge]4 [Gd]4 | [Ec]2 [Ec]2 [_Be]2 [Bc]2 | %14
 [Af]4 [Ac]4 | [Ge]8 |] %16
V:2
 x8 | C6 x2 | x8 | x8 | x8 | x8 | x8 | E8 | x8 | C6 x2 | x8 | x8 | x8 | x8 | x8 | x8 |] %16
V:3
 [C,G,]4 [G,,G,]3 [G,,F,] | [A,,E,]6 [G,,G,]2 | [C,G,]2 [C,C]2 [D,C]2 [E,C]2 | %3
 [F,C]4 [C,C]2 [C,C]2 | C4 [G,B,]4 | [A,C]3 [A,C] [B,E]2 [CE]2 | [B,E]4 [B,^D]4 | [E,E]8 | %8
 [C,G,]4 [C,_B,]3 [C,B,] | [C,A,]6 [C,_A,]2 | [C,G,]2 [C,C]2 [D,C]2 [E,C]2 | [F,C]4 [C,C]2 [C,C]2 | %12
 C4 [G,B,]4 | [A,C]2 [A,C]2 [G,C]2 [G,C]2 | [F,C]4 [F,F]4 | [C,E]8 |] %16
V:4
 x8 | x8 | x8 | x8 | C4 x4 | x8 | x8 | x8 | x8 | x8 | x8 | x8 | C4 x4 | x8 | x8 | x8 |] %16

